X: 136
T: Pepper's Black (Kettledrum)
M:4/4
L:1/8
Q:160
S:Playford
O:Manuscript
A:English
K:C
efgf e2 d2|A2 f2 A2 f2|efgf e2 d2 |A2 f2 d4|efgf e2 d2 |A2 f2 A2 f2| efgf e2 d2|A2 f2 d4||efga g3 a|g3 a g2 e2|fg a2 a2 ^g2|a4 fg|egfe defd|e4 A4| F2 A2 A2 f2|d8:|

